X:1
T:I Belong to Jesus
T:I Belong to Jesus
T:Adam Geibel
T:Ada Blenkhorn, 1904
T:Public Domain Courtesy of the Cyber Hymnal™
C:Adam Geibel
Z:Public Domain
Z:Courtesy of the Cyber Hymnal™
%%score ( 1 2 ) ( 3 4 )
L:1/8
Q:1/4=110
M:4/4
K:Db
V:1 treble 
V:2 treble 
V:3 bass 
V:4 bass 
V:1
 ([DF][EG]) | [FA]2 [FA]2 [EA]2 [GA]2 | [Fd]4 [FA]2 [FA]2 | [Ac]2 [GB]2 [FA]2 [CE]2 | %4
w: 1.~To *|His dear voice I|list- ened, And|to my Lord I|
w: 2.~My *|Sav- ior’s yoke is|ea- sy, And|His com- mands are|
w: 3.~And *|when my heart is|trou- bled, I|come to Him for|
w: 4.~When *|I shall reach the|home- land, My|Sav- ior I shall|
 [DF]6 ([DF][EG]) | [FA]2 [FA]2 [EA]2 [GA]2 | [Fd]4 [FA]2 (AB) | [Ec]2 [EA]2 [E=G]2 [EB]2 | %8
w: came; He *|filled my heart with|mu- sic, Glad *|prais- es to His|
w: sweet; My *|joy it is to|fol- low The *|prints of His dear|
w: rest; He *|speak- eth words of|com- fort, While *|lean- ing on His|
w: see; For *|I be- long to|Je- sus, And *|He be- longs to|
 [EA]6 ||"^Refrain" A2 | [Ge]3 [Gc] [GB]2 [GA]2 | d4 [FA]2 [FA]2 | [Ge]3 [Gc] [GB]2 [GA]2 | %13
w: name.|||||
w: feet.|His|grace and lov- ing-|kind- ness, My|song shall ev- er|
w: breast.|||||
w: me.|||||
 [Fd]6 [FA]2 | [Fd]3 [Fd] [Fd]2 [FA]2 | ([GB]2 [Ac]2) [Bd]2 [GB]2 | [FA]3 [DF] [CE]2 [CG]2 | %17
w: ||||
w: be; For|I be- long to|Je- * sus, And|He be- longs to|
w: ||||
w: ||||
 [DF]6 A2 | [Fd]3 [Fd] [Af]2 [Ad]2 | ([GB]2 [Ac]2) !fermata![Bd]2 [GB]2 | %20
w: |||
w: me; For|I be- long to|Je- * sus, And|
w: |||
w: |||
 [FA]3 [FA] [=Gd]2 [_Gc]2 | [Fd]6 |] %22
w: ||
w: He be- longs to|me.|
w: ||
w: ||
V:2
 x2 | x8 | x8 | x8 | x8 | x8 | x6 F2 | x8 | x6 || A2 | x8 | (F2 G2) x4 | x8 | x8 | x8 | x8 | x8 | %17
 x6 A2 | x8 | x8 | x8 | x6 |] %22
V:3
 [D,A,]2 | [D,D]2 [D,D]2 [A,C]2 [A,C]2 | [D,A,]4 [D,D]2 [D,D]2 | [G,D]2 [G,D]2 [A,D]2 [A,,A,]2 | %4
 [D,A,]6 [D,A,]2 | [D,D]2 [D,D]2 [A,C]2 [A,C]2 | [D,A,]4 [D,D]2 [D,A,]2 | %7
 [E,A,]2 [E,C]2 [E,B,]2 [E,D]2 | [A,C]6 || A,2 | [A,C]3 [A,E] [A,D]2 [A,C]2 | %11
 (A,2 B,2) [D,D]2 [D,D]2 | [A,C]3 [A,E] [A,D]2 [A,C]2 | [D,D]6 [D,D]2 | %14
 [D,A,]3 [D,A,] [D,A,]2 [D,D]2 | [G,D]4 [G,D]2 [G,D]2 | [A,D]3 A, [A,,A,]2 [A,,A,]2 | [D,A,]6 A,2 | %18
 [D,A,]3 [D,A,] [D,D]2 [F,D]2 | [G,D]4 [G,D]2 [G,D]2 | [A,D]3 [A,D] [E,B,]2 [A,,A,]2 | [D,A,]6 |] %22
V:4
 x2 | x8 | x8 | x8 | x8 | x8 | x8 | x8 | x6 || A,2 | x8 | D,4 x4 | x8 | x8 | x8 | x8 | x3 A, x4 | %17
 x6 A,2 | x8 | x8 | x8 | x6 |] %22

